src/assets/icons/Values__risk.svg

<svg width="17" height="27" viewBox="0 0 17 27" fill="none" xmlns="http://www.w3.org/2000/svg">
<path d="M15.8167 9.13774C15.8167 13.8751 12.439 14.6109 12.439 19.026C12.439 21.3053 10.3294 21.4973 8.72364 21.4973C7.33678 21.4973 4.27462 20.9242 4.27462 19.0245C4.27462 14.6116 0.955078 13.8759 0.955078 9.13774C0.955078 4.70052 4.52524 1.10352 8.44195 1.10352C12.36 1.10352 15.8167 4.70052 15.8167 9.13774Z" fill="url(#paint0_linear_36_3)" stroke="white" stroke-width="0.5"/>
<path d="M11.2021 24.9116C11.2021 25.5208 9.69298 26.7509 8.38719 26.7509C7.08139 26.7509 5.57227 25.5208 5.57227 24.9116C5.57227 24.3024 7.08072 24.5437 8.38719 24.5437C9.69298 24.5437 11.2021 24.3024 11.2021 24.9116Z" fill="url(#paint1_linear_36_3)" stroke="white" stroke-width="0.5"/>
<path d="M11.5641 8.57314C11.5014 8.50476 11.4269 8.45051 11.345 8.41349C11.263 8.37647 11.1752 8.35742 11.0865 8.35742C10.9978 8.35742 10.9099 8.37647 10.828 8.41349C10.746 8.45051 10.6716 8.50476 10.6089 8.57314L8.38437 10.9959L6.15986 8.57314C6.09714 8.50483 6.02268 8.45065 5.94074 8.41368C5.85879 8.37671 5.77096 8.35768 5.68226 8.35768C5.59356 8.35768 5.50573 8.37671 5.42379 8.41368C5.34184 8.45065 5.26738 8.50483 5.20466 8.57314C5.14194 8.64145 5.09219 8.72254 5.05825 8.81179C5.02431 8.90104 5.00684 8.9967 5.00684 9.0933C5.00684 9.18991 5.02431 9.28557 5.05825 9.37482C5.09219 9.46407 5.14194 9.54516 5.20466 9.61347L7.70884 12.3408V20.1293C7.70884 20.3244 7.78001 20.5116 7.9067 20.6496C8.03339 20.7875 8.20521 20.8651 8.38437 20.8651C8.56353 20.8651 8.73535 20.7875 8.86204 20.6496C8.98873 20.5116 9.0599 20.3244 9.0599 20.1293V12.3408L11.5641 9.61347C11.6269 9.5452 11.6767 9.46412 11.7107 9.37486C11.7446 9.28561 11.7621 9.18993 11.7621 9.0933C11.7621 8.99668 11.7446 8.901 11.7107 8.81174C11.6767 8.72249 11.6269 8.64141 11.5641 8.57314Z" fill="white"/>
<path d="M13 23C13 23.2652 12.8595 23.5196 12.6095 23.7071C12.3594 23.8946 12.0203 24 11.6667 24H6.33333C5.97971 24 5.64057 23.8946 5.39052 23.7071C5.14048 23.5196 5 23.2652 5 23V20H13V23Z" fill="#09010E"/>
<path d="M4.32928 24.5433C4.16011 24.5426 3.99734 24.4728 3.87314 24.3477C3.74894 24.2226 3.67235 24.0514 3.65852 23.8677C3.64468 23.6841 3.6946 23.5015 3.79841 23.356C3.90222 23.2106 4.05237 23.1128 4.21917 23.0821L12.3255 21.6106C12.413 21.5942 12.5027 21.5969 12.5892 21.6185C12.6758 21.6401 12.7576 21.6802 12.8298 21.7364C12.9021 21.7927 12.9634 21.864 13.0102 21.9462C13.0569 22.0284 13.0883 22.1199 13.1023 22.2154C13.1169 22.3107 13.1142 22.4082 13.0941 22.5023C13.0741 22.5964 13.0373 22.6852 12.9857 22.7638C12.9342 22.8424 12.8689 22.9091 12.7936 22.9602C12.7183 23.0113 12.6346 23.0457 12.5471 23.0615L4.44074 24.533C4.40394 24.54 4.36664 24.5435 4.32928 24.5433ZM4.32928 21.6003C4.16011 21.5997 3.99734 21.5299 3.87314 21.4048C3.74894 21.2797 3.67235 21.1084 3.65852 20.9248C3.64468 20.7412 3.6946 20.5586 3.79841 20.4131C3.90222 20.2676 4.05237 20.1699 4.21917 20.1392L12.3255 18.6677C12.413 18.6514 12.5026 18.6541 12.5892 18.6758C12.6757 18.6974 12.7574 18.7375 12.8297 18.7937C12.9019 18.85 12.9632 18.9212 13.01 19.0034C13.0568 19.0856 13.0882 19.177 13.1023 19.2725C13.1169 19.3678 13.1142 19.4652 13.0941 19.5593C13.0741 19.6534 13.0373 19.7423 12.9857 19.8209C12.9342 19.8995 12.8689 19.9662 12.7936 20.0173C12.7183 20.0684 12.6346 20.1028 12.5471 20.1186L4.44074 21.59C4.40394 21.5971 4.36664 21.6005 4.32928 21.6003Z" fill="url(#paint2_linear_36_3)" stroke="white" stroke-width="0.5"/>
<defs>
<linearGradient id="paint0_linear_36_3" x1="2.33266" y1="-0.745515" x2="22.2598" y2="3.89329" gradientUnits="userSpaceOnUse">
<stop stop-color="#C54A92"/>
<stop offset="1" stop-color="#2E62EB"/>
</linearGradient>
<linearGradient id="paint1_linear_36_3" x1="6.09412" y1="24.2922" x2="7.85313" y2="27.9562" gradientUnits="userSpaceOnUse">
<stop stop-color="#C54A92"/>
<stop offset="1" stop-color="#2E62EB"/>
</linearGradient>
<linearGradient id="paint2_linear_36_3" x1="4.5327" y1="18.1236" x2="10.1752" y2="25.6839" gradientUnits="userSpaceOnUse">
<stop stop-color="#C54A92"/>
<stop offset="1" stop-color="#2E62EB"/>
</linearGradient>
</defs>
</svg>

<svg width="17" height="27" fill="none" xmlns="http://www.w3.org/2000/svg"><path d="M15.817 9.138c0 4.737-3.378 5.473-3.378 9.888 0 2.28-2.11 2.471-3.715 2.471-1.387 0-4.45-.573-4.45-2.473 0-4.412-3.319-5.148-3.319-9.886 0-4.437 3.57-8.034 7.487-8.034 3.918 0 7.375 3.597 7.375 8.034Z" fill="url(#a)" stroke="#fff" stroke-width=".5"/><path d="M11.202 24.912c0 .609-1.509 1.839-2.815 1.839s-2.815-1.23-2.815-1.84c0-.609 1.509-.367 2.815-.367s2.815-.242 2.815.368Z" fill="url(#b)" stroke="#fff" stroke-width=".5"/><path d="M11.564 8.573a.675.675 0 0 0-.219-.16.627.627 0 0 0-.517 0 .674.674 0 0 0-.22.16l-2.224 2.423L6.16 8.573a.675.675 0 0 0-.22-.16.628.628 0 0 0-.516 0 .675.675 0 0 0-.22.16.743.743 0 0 0-.146.239.793.793 0 0 0 .147.801l2.504 2.728v7.788a.77.77 0 0 0 .198.52.649.649 0 0 0 .477.216c.18 0 .351-.077.478-.215a.77.77 0 0 0 .198-.52v-7.79l2.504-2.727a.742.742 0 0 0 .147-.238.794.794 0 0 0 0-.563.743.743 0 0 0-.147-.239Z" fill="#fff"/><path d="M13 23c0 .265-.14.52-.39.707-.25.188-.59.293-.943.293H6.333c-.353 0-.692-.105-.942-.293C5.14 23.52 5 23.265 5 23v-3h8v3Z" fill="#09010E"/><path d="M4.33 24.543a.646.646 0 0 1-.457-.195.782.782 0 0 1-.075-.992.668.668 0 0 1 .421-.274l8.107-1.471a.617.617 0 0 1 .504.125.711.711 0 0 1 .18.21.797.797 0 0 1-.024.818.7.7 0 0 1-.192.196.642.642 0 0 1-.247.101l-8.106 1.472a.58.58 0 0 1-.112.01Zm0-2.943a.646.646 0 0 1-.457-.195.782.782 0 0 1-.075-.992.668.668 0 0 1 .421-.274l8.107-1.471a.618.618 0 0 1 .504.126.712.712 0 0 1 .18.21.797.797 0 0 1-.024.818.7.7 0 0 1-.192.195.642.642 0 0 1-.247.102L4.441 21.59a.572.572 0 0 1-.112.01Z" fill="url(#c)" stroke="#fff" stroke-width=".5"/><defs><linearGradient id="a" x1="2.333" y1="-.746" x2="22.26" y2="3.893" gradientUnits="userSpaceOnUse"><stop stop-color="#C54A92"/><stop offset="1" stop-color="#2E62EB"/></linearGradient><linearGradient id="b" x1="6.094" y1="24.292" x2="7.853" y2="27.956" gradientUnits="userSpaceOnUse"><stop stop-color="#C54A92"/><stop offset="1" stop-color="#2E62EB"/></linearGradient><linearGradient id="c" x1="4.533" y1="18.124" x2="10.175" y2="25.684" gradientUnits="userSpaceOnUse"><stop stop-color="#C54A92"/><stop offset="1" stop-color="#2E62EB"/></linearGradient></defs></svg>
